!!!OTL: 1374. Soldatenfreude.
!!!ODT: 1885
!!!ARE: Europa, Mitteleuropa, Deutschland, Hessen, Kreis Wetzlar
!!!SCT: E1374A
!!!TXL: @@DE
!!!YEM: Copyright 1995, estate of Helmut Schaffrath.
**kern	**text
*ICvox	*
*M4/4	*
*met(c)	*
*k[f#]	*
*G:	*
!LO:TX:a:t=Aus dem Kreis Wetʒlar. 1885.	!
{4d	Jch
=1	=1
4g	weiß
4b/	nicht,
4b/	bin
16ccqqL	.
16bqqJ	.
8aL	ich
8gJ	.
=2	=2
4a	reich
(8a	o-
8b/)	-der
4cc}	arm,
{8b/	o-
8a	-der
=3	=3
4b	gehts
4dd	mit
4dd	mir
8cc	ʒum
8b	Ver-
=4	=4
4b/	-der-
4a	-ben?
4r}	.
{8aL	Jch
8bJ	.
=5	=5
4cc	weiß
4ee	nicht
4ee	komm
8dd	ich
8cc	ge-
=6	=6
4b	-ſund
4b	nach
4dd}	Haus,
{8cc	o-
8b	-der
=7	=7
8a	muß
8a	ich
8a	auf
8a	dem
4dd	Schlacht-
8f#	-fel-
8f#	-de
=8	=8
4a	ſter-
4g	-ben?
4r}	.
{8aL	Jch
8bJ	.
=9	=9
4cc	weiß
4ee	nicht
4ee	komm
8dd	ich
8cc	ge-
=10	=10
4b	-ſund
4b	nach
4dd}	Haus,
{8cc	o-
8b	-der
=11	=11
8a	muß
8a	ich
8a	auf
8a	dem
4dd	Schlacht-
8f#	-fel-
8f#	-de
=12	=12
4a	ſter-
4g	-ben?
4r}	.
==	==
!!!AGN: Staende -, Soldaten -, Kriegs - Lied
!!!ONB: ESAC (Essen Associative Code) Database: ERK3
!!!AMT: simple quadruple
!!!AIN: vox
!!!EED: Helmut Schaffrath
!!!EEV: 1.0
!!!GTL: Staendelieder (Berufslieder). 1. Soldaten- und Kriegslieder. Soldatenlieder seit dem 30jaehr. Kriege.
!!!URL-scan: https://rosdok.uni-rostock.de/mcrviewer/recordIdentifier/rosdok_ppn745177999/iview2/phys_0247.iview2?x=-128.77276441889285&y=1125.1999917334178&scale=0.5870222003877487&rotation=0&layout=singlePageLayout
!!!ENC: Anna Maria Matuszewska
!!!EEV: 2024/12/30
*-	*-
